public/favicon.svg

<svg id="Capa_1" enable-background="new 0 0 512 512" height="512" viewBox="0 0 512 512" width="512" xmlns="http://www.w3.org/2000/svg"><g><path d="m512 180.75h-210.875v-180.75h-90.25v180.75h-210.875v90.25h31.883l30.125 241h387.983l30.125-241h31.884zm-256 17.525c15.218 0 27.6 12.381 27.6 27.6s-12.381 27.6-27.6 27.6-27.6-12.381-27.6-27.6 12.382-27.6 27.6-27.6zm15.125-168.275v140.304c-4.823-1.314-9.891-2.029-15.125-2.029s-10.302.715-15.125 2.029v-140.304zm-241.125 180.75h170.43c-1.314 4.823-2.029 9.891-2.029 15.125s.715 10.302 2.029 15.125h-170.43zm393.508 271.25h-335.016l-26.375-211h158.149c9.828 7.799 22.242 12.475 35.734 12.475s25.906-4.675 35.734-12.475h158.149zm58.492-241h-170.43c1.314-4.823 2.029-9.891 2.029-15.125s-.715-10.302-2.029-15.125h170.43z"/><path d="m150.625 316.25h30v120.5h-30z"/><path d="m210.875 316.25h30v120.5h-30z"/><path d="m271.125 316.25h30v120.5h-30z"/><path d="m331.375 316.25h30v120.5h-30z"/></g></svg>

<svg width="512" height="512" viewBox="0 0 512 512" fill="none" xmlns="http://www.w3.org/2000/svg">
<path d="M512 180.75H301.125V0H210.875V180.75H0V271H31.883L62.008 512H449.991L480.116 271H512V180.75ZM256 198.275C271.218 198.275 283.6 210.656 283.6 225.875C283.6 241.094 271.219 253.475 256 253.475C240.781 253.475 228.4 241.094 228.4 225.875C228.4 210.656 240.782 198.275 256 198.275ZM271.125 30V170.304C266.302 168.99 261.234 168.275 256 168.275C250.766 168.275 245.698 168.99 240.875 170.304V30H271.125ZM30 210.75H200.43C199.116 215.573 198.401 220.641 198.401 225.875C198.401 231.109 199.116 236.177 200.43 241H30V210.75ZM423.508 482H88.492L62.117 271H220.266C230.094 278.799 242.508 283.475 256 283.475C269.492 283.475 281.906 278.8 291.734 271H449.883L423.508 482ZM482 241H311.57C312.884 236.177 313.599 231.109 313.599 225.875C313.599 220.641 312.884 215.573 311.57 210.75H482V241Z" fill="#F5007E"/>
<path d="M150.625 316.25H180.625V436.75H150.625V316.25Z" fill="#F5007E"/>
<path d="M210.875 316.25H240.875V436.75H210.875V316.25Z" fill="#F5007E"/>
<path d="M271.125 316.25H301.125V436.75H271.125V316.25Z" fill="#F5007E"/>
<path d="M331.375 316.25H361.375V436.75H331.375V316.25Z" fill="#F5007E"/>
</svg>
